src/lib/packages/icons/src/assets/filled/calendar-edit.svg

<svg width="24" height="24" viewBox="0 0 24 24" fill="none" xmlns="http://www.w3.org/2000/svg">
<path d="M20.7 9.75H3.30005C3.13405 9.75 3 9.88405 3 10.05V18C3 20 4 21 6 21H18C20 21 21 20 21 18V10.05C21 9.88405 20.866 9.75 20.7 9.75ZM10.3311 18.75H8.25098V16.6699L11.9609 12.9399L14.061 15.04L10.3311 18.75ZM15.5 13.5991L14.76 14.3391L12.6599 12.239L13.3999 11.499C13.7199 11.169 14.2501 11.169 14.5801 11.489L15.51 12.4189C15.831 12.7499 15.831 13.2791 15.5 13.5991ZM21 7.5V7.94995C21 8.11595 20.866 8.25 20.7 8.25H3.30005C3.13405 8.25 3 8.11595 3 7.94995V7.5C3 5.5 4 4.5 6 4.5H7.25V3C7.25 2.59 7.59 2.25 8 2.25C8.41 2.25 8.75 2.59 8.75 3V4.5H15.25V3C15.25 2.59 15.59 2.25 16 2.25C16.41 2.25 16.75 2.59 16.75 3V4.5H18C20 4.5 21 5.5 21 7.5Z" fill="currentColor"/>
</svg>

<svg xmlns="http://www.w3.org/2000/svg" width="24" height="24" fill="none"><path fill="currentColor" d="M20.7 9.75H3.3a.3.3 0 0 0-.3.3V18c0 2 1 3 3 3h12c2 0 3-1 3-3v-7.95a.3.3 0 0 0-.3-.3Zm-10.369 9h-2.08v-2.08l3.71-3.73 2.1 2.1-3.73 3.71ZM15.5 13.6l-.74.74-2.1-2.101.74-.74c.32-.33.85-.33 1.18-.01l.93.93a.834.834 0 0 1-.01 1.18ZM21 7.5v.45a.3.3 0 0 1-.3.3H3.3a.3.3 0 0 1-.3-.3V7.5c0-2 1-3 3-3h1.25V3c0-.41.34-.75.75-.75s.75.34.75.75v1.5h6.5V3c0-.41.34-.75.75-.75s.75.34.75.75v1.5H18c2 0 3 1 3 3Z"/></svg>
